SVG_Azure_All/Deployment.svg

<?xml version="1.0" encoding="UTF-8" standalone="no"?>
<!-- Generated by Microsoft Visio, SVG Export Deployment.svg Page-1 -->

<svg
   xmlns:dc="http://purl.org/dc/elements/1.1/"
   xmlns:cc="http://creativecommons.org/ns#"
   xmlns:rdf="http://www.w3.org/1999/02/22-rdf-syntax-ns#"
   xmlns:svg="http://www.w3.org/2000/svg"
   xmlns="http://www.w3.org/2000/svg"
   xmlns:sodipodi="http://sodipodi.sourceforge.net/DTD/sodipodi-0.dtd"
   xmlns:inkscape="http://www.inkscape.org/namespaces/inkscape"
   width="0.78736001in"
   height="0.74791563in"
   viewBox="0 0 56.689989 53.85001"
   xml:space="preserve"
   class="st2"
   version="1.1"
   id="svg24"
   sodipodi:docname="Deployment.svg"
   style="font-size:12px;overflow:visible;color-interpolation-filters:sRGB;fill:none;fill-rule:evenodd;stroke-linecap:square;stroke-miterlimit:3"
   inkscape:version="0.92.5 (2060ec1f9f, 2020-04-08)"><metadata
   id="metadata30"><rdf:RDF><cc:Work
       rdf:about=""><dc:format>image/svg+xml</dc:format><dc:type
         rdf:resource="http://purl.org/dc/dcmitype/StillImage" /></cc:Work></rdf:RDF></metadata><defs
   id="defs28" /><sodipodi:namedview
   pagecolor="#ffffff"
   bordercolor="#666666"
   borderopacity="1"
   objecttolerance="10"
   gridtolerance="10"
   guidetolerance="10"
   inkscape:pageopacity="0"
   inkscape:pageshadow="2"
   inkscape:window-width="640"
   inkscape:window-height="480"
   id="namedview26"
   showgrid="false"
   inkscape:zoom="1.7679873"
   inkscape:cx="37.795224"
   inkscape:cy="21.383051"
   inkscape:window-x="0"
   inkscape:window-y="0"
   inkscape:window-maximized="0"
   inkscape:current-layer="svg24" />
	<style
   type="text/css"
   id="style2">
	<![CDATA[
		.st1 {fill:#000000;stroke:none;stroke-linecap:butt;stroke-width:12.24}
		.st2 {fill:none;fill-rule:evenodd;font-size:12px;overflow:visible;stroke-linecap:square;stroke-miterlimit:3}
	]]>
	</style>

	<g
   id="g22"
   transform="translate(-12.24,-12.2443)">
		<title
   id="title4">Page-1</title>
		<g
   id="group5679-1"
   transform="translate(12.24,-34.0157)">
			<title
   id="title6">Deployment</title>
			<g
   id="group5680-2">
				<title
   id="title8">g8</title>
				<g
   id="shape5681-3">
					<title
   id="title10">path4</title>
					<path
   d="m 26.73,52.85 -7.83,7.51 v -4.08 l 9.44,-10.02 9.46,9.99 v 4.06 L 30.01,52.85 V 66.14 H 26.73 Z M 54.6,71.47 H 2.1 C 0.94,71.47 0,72.42 0,73.59 v 24.4 c 0,1.17 0.95,2.12 2.1,2.12 h 52.49 c 1.16,0 2.1,-0.95 2.1,-2.12 V 73.59 A 2.10688,2.12912 -180 0 0 54.6,71.47 Z M 52.42,95.54 H 4.23 V 76.05 h 48.19 z"
   class="st1"
   id="path12"
   inkscape:connector-curvature="0"
   style="fill:#000000;stroke:none;stroke-width:12.23999977;stroke-linecap:butt" />
				</g>
				<g
   id="shape5682-5"
   transform="translate(9.33127,-9.16736)">
					<title
   id="title15">path6</title>
					<path
   d="m 14.08,90.58 h 9.44 v 9.53 h -9.44 z m 14.08,0 h 9.44 v 9.53 H 28.16 Z M 0,90.58 h 9.44 v 9.53 H 0 Z"
   class="st1"
   id="path17"
   inkscape:connector-curvature="0"
   style="fill:#000000;stroke:none;stroke-width:12.23999977;stroke-linecap:butt" />
				</g>
			</g>
		</g>
	</g>
</svg>

<?xml version="1.0" encoding="UTF-8" standalone="no"?>
<!DOCTYPE svg PUBLIC "-//W3C//DTD SVG 1.1//EN" "http://www.w3.org/Graphics/SVG/1.1/DTD/svg11.dtd">
<!-- Generated by Microsoft Visio, SVG Export Deployment.svg Page-1 -->
<svg xmlns="http://www.w3.org/2000/svg" xmlns:xlink="http://www.w3.org/1999/xlink" xmlns:ev="http://www.w3.org/2001/xml-events"
		width="1.1274in" height="1.39047in" viewBox="0 0 81.1729 100.114" xml:space="preserve" color-interpolation-filters="sRGB"
		class="st2">
	<style type="text/css">
	<![CDATA[
		.st1 {fill:#000000;stroke:none;stroke-linecap:butt;stroke-width:12.24}
		.st2 {fill:none;fill-rule:evenodd;font-size:12px;overflow:visible;stroke-linecap:square;stroke-miterlimit:3}
	]]>
	</style>

	<g>
		<title>Page-1</title>
		<g id="group5560-1" transform="translate(12.24,-34.0157)">
			<title>Deployment</title>
			<g id="group5561-2">
				<title>g8</title>
				<g id="shape5562-3">
					<title>path4</title>
					<path d="M26.73 52.85 L18.9 60.36 L18.9 56.28 L28.34 46.26 L37.8 56.25 L37.8 60.31 L30.01 52.85 L30.01 66.14
								 L26.73 66.14 L26.73 52.85 ZM54.6 71.47 L2.1 71.47 C0.94 71.47 0 72.42 0 73.59 L0 97.99 C0 99.16
								 0.95 100.11 2.1 100.11 L54.59 100.11 C55.75 100.11 56.69 99.16 56.69 97.99 L56.69 73.59 A2.10688
								 2.12912 -180 0 0 54.6 71.47 ZM52.42 95.54 L4.23 95.54 L4.23 76.05 L52.42 76.05 L52.42 95.54 Z"
							class="st1"/>
				</g>
				<g id="shape5563-5" transform="translate(9.33127,-9.16736)">
					<title>path6</title>
					<path d="M14.08 90.58 L23.52 90.58 L23.52 100.11 L14.08 100.11 L14.08 90.58 ZM28.16 90.58 L37.6 90.58 L37.6 100.11
								 L28.16 100.11 L28.16 90.58 ZM0 90.58 L9.44 90.58 L9.44 100.11 L0 100.11 L0 90.58 Z" class="st1"/>
				</g>
			</g>
		</g>
	</g>
</svg>
